school/img/country/PG.svg

<svg width="13" height="12" viewBox="0 0 13 12" fill="none" xmlns="http://www.w3.org/2000/svg">
<rect width="13" height="12" rx="2" fill="white"/>
<mask id="mask0" mask-type="alpha" maskUnits="userSpaceOnUse" x="0" y="0" width="13" height="12">
<rect width="13" height="12" rx="2" fill="white"/>
</mask>
<g mask="url(#mask0)">
<rect width="13" height="12" fill="#262626"/>
<path fill-rule="evenodd" clip-rule="evenodd" d="M0 0H13V12L0 0Z" fill="#E8283F"/>
<path fill-rule="evenodd" clip-rule="evenodd" d="M3.09524 10L2.65751 10.1657L2.78572 9.6L2.65751 9.03432L3.09524 9.2L3.53298 9.03432L3.40477 9.6L3.53298 10.1657L3.09524 10Z" fill="white"/>
<path fill-rule="evenodd" clip-rule="evenodd" d="M3.09524 5.2L2.65751 5.36569L2.78572 4.8L2.65751 4.23431L3.09524 4.4L3.53298 4.23431L3.40477 4.8L3.53298 5.36569L3.09524 5.2Z" fill="white"/>
<path fill-rule="evenodd" clip-rule="evenodd" d="M1.54764 7.2L1.1099 7.36569L1.23811 6.8L1.1099 6.23431L1.54764 6.4L1.98537 6.23431L1.85716 6.8L1.98537 7.36569L1.54764 7.2Z" fill="white"/>
<path fill-rule="evenodd" clip-rule="evenodd" d="M4.33328 6.80001L3.89555 6.96569L4.02376 6.40001L3.89555 5.83432L4.33328 6.00001L4.77101 5.83432L4.6428 6.40001L4.77101 6.96569L4.33328 6.80001Z" fill="white"/>
<path fill-rule="evenodd" clip-rule="evenodd" d="M8.75696 5.55933C8.68286 5.50187 8.62278 5.36651 8.62278 5.25822L8.62278 4.52099C8.62278 4.41215 8.56218 4.35002 8.47049 4.38952L8.11847 4.54116C8.03436 4.57739 7.90558 4.58066 7.81389 4.54116L7.46187 4.38952C7.37776 4.35329 7.36842 4.2783 7.44377 4.21987L8.26972 3.57943C8.34383 3.52197 8.38371 3.39708 8.35315 3.27859L8.23581 2.82366C8.20777 2.71497 8.24564 2.65296 8.33733 2.69246L8.68936 2.8441C8.77346 2.88033 8.87695 2.83367 8.92216 2.73629L9.41773 1.6689C9.4622 1.57313 9.51844 1.5738 9.54901 1.69229L9.66635 2.14721C9.69438 2.25591 9.69691 2.42232 9.66635 2.54082L9.54901 2.99574C9.52097 3.10443 9.56694 3.19255 9.65074 3.19255H10.2212C10.3054 3.19254 10.409 3.26858 10.4542 3.36596L10.9498 4.43335C10.9943 4.52912 10.9585 4.62532 10.8781 4.64609L10.0881 4.85027C10.0041 4.87199 9.92162 4.98239 9.90554 5.08624L9.74754 6.10717C9.73073 6.21578 9.65827 6.25819 9.58292 6.19977L8.75696 5.55933V5.55933Z" fill="#FFD84E"/>
</g>
</svg>

<svg width="13" height="12" fill="none" xmlns="http://www.w3.org/2000/svg"><rect width="13" height="12" rx="2" fill="#fff"/><mask id="a" maskUnits="userSpaceOnUse" x="0" y="0" width="13" height="12"><rect width="13" height="12" rx="2" fill="#fff"/></mask><g mask="url(#a)"><path fill="#262626" d="M0 0h13v12H0z"/><path fill-rule="evenodd" clip-rule="evenodd" d="M0 0h13v12L0 0z" fill="#E8283F"/><path fill-rule="evenodd" clip-rule="evenodd" d="M3.095 10l-.437.166.128-.566-.128-.566.437.166.438-.166-.128.566.128.566L3.095 10zm0-4.8l-.437.166.128-.566-.128-.566.437.166.438-.166-.128.566.128.566-.438-.166zm-1.547 2l-.438.166.128-.566-.128-.566.438.166.437-.166-.128.566.128.566-.437-.166zm2.785-.4l-.437.166.128-.566-.128-.566.437.166.438-.166-.128.566.128.566-.438-.166z" fill="#fff"/><path fill-rule="evenodd" clip-rule="evenodd" d="M8.757 5.56a.426.426 0 01-.134-.302v-.737c0-.109-.06-.171-.153-.131l-.352.151a.422.422 0 01-.304 0l-.352-.151c-.084-.037-.094-.112-.018-.17l.826-.64c.074-.058.114-.183.083-.301l-.117-.455c-.028-.109.01-.171.101-.132l.352.152c.084.036.188-.01.233-.108l.496-1.067c.044-.096.1-.095.131.023l.117.455a.892.892 0 010 .394l-.117.455c-.028.108.018.197.102.197h.57c.084 0 .188.076.233.173l.496 1.067c.044.096.009.192-.072.213l-.79.204c-.084.022-.166.132-.182.236l-.158 1.021c-.017.109-.09.151-.165.093l-.826-.64z" fill="#FFD84E"/></g></svg>
